svgs/solid/forklift.svg

<svg xmlns="http://www.w3.org/2000/svg" viewBox="0 0 640 512"><!--! Font Awesome Pro 6.4.2 by @fontawesome - https://fontawesome.com License - https://fontawesome.com/license (Commercial License) Copyright 2023 Fonticons, Inc. --><path d="M48 160H96V48c0-26.5 21.5-48 48-48H292.7c20.3 0 38.4 12.8 45.2 31.9l75.3 210.8c1.8 5.2 2.8 10.6 2.8 16.1v85.7c19.6 17.6 32 43.1 32 71.6c0 53-43 96-96 96s-96-43-96-96H192c0 53-43 96-96 96s-96-43-96-96V208c0-26.5 21.5-48 48-48zm208 96h94L281.4 64H160v96l96 96zM96 464a48 48 0 1 0 0-96 48 48 0 1 0 0 96zm256 0a48 48 0 1 0 0-96 48 48 0 1 0 0 96zM544 32V384h64c17.7 0 32 14.3 32 32s-14.3 32-32 32H512c-17.7 0-32-14.3-32-32V32c0-17.7 14.3-32 32-32s32 14.3 32 32z"/></svg>

<svg xmlns="http://www.w3.org/2000/svg" viewBox="0 0 640 512"><!--! Font Awesome Pro 6.1.1 by @fontawesome - https://fontawesome.com License - https://fontawesome.com/license (Commercial License) Copyright 2022 Fonticons, Inc. --><path d="M48 160H96V48C96 21.49 117.5 0 144 0H292.7C313 0 331.1 12.75 337.9 31.86L413.2 242.6C415.1 247.8 416 253.3 416 258.8V344.4C435.6 362 448 387.6 448 416C448 469 405 512 352 512C298.1 512 256 469 256 416H192C192 469 149 512 96 512C42.98 512 0 469 0 416V208C0 181.5 21.49 160 48 160V160zM350 256L281.4 64H160V160L256 256H350zM96 464C122.5 464 144 442.5 144 416C144 389.5 122.5 368 96 368C69.49 368 48 389.5 48 416C48 442.5 69.49 464 96 464zM352 464C378.5 464 400 442.5 400 416C400 389.5 378.5 368 352 368C325.5 368 304 389.5 304 416C304 442.5 325.5 464 352 464zM544 384H608C625.7 384 640 398.3 640 416C640 433.7 625.7 448 608 448H512C494.3 448 480 433.7 480 416V32C480 14.33 494.3 0 512 0C529.7 0 544 14.33 544 32V384z"/></svg>
